X:303
T: Shange,yichang zhentianxiang
N: C1800
O: China,Jiangsu Qidong
S: III, 446]
R: Shange]
M: 2/4
L: 1/16
K: D
A2B2d2e2 | e8- | e8 |
e2BdB2A2- | AABd
B2e2e2dB | A2BdB3A | A8 |
A2B2d2e2- | e8 | e2Bdd4- | d8 |
B2e2e2dB | A2BdB3A | A8- | A6z2

@@@ Tune index: 6858
